brandFactory_export/2.Regular/Movil Play_2Regular.svg

<?xml version="1.0" encoding="UTF-8"?>
<svg width="24px" height="24px" viewBox="0 0 24 24" version="1.1" xmlns="http://www.w3.org/2000/svg" xmlns:xlink="http://www.w3.org/1999/xlink">
    <title>2.Regular/Movil Play_2Regular</title>
    <g id="Symbols" stroke="none" stroke-width="1" fill="none" fill-rule="evenodd">
        <g id="2.Regular/Movil-Play_2Regular" fill="#5CB615" fill-rule="nonzero">
            <path d="M5.75462185,13.9495798 L9.21008403,11.9731092 L5.75462185,9.99327731 L5.75462185,13.9495798 Z M11.0352941,11.3445378 C11.2605042,11.4756303 11.4016807,11.7142857 11.4016807,11.9731092 C11.4016807,12.2319328 11.2605042,12.4705882 11.0352941,12.6016807 L5.38823529,15.8319328 C5.16302521,15.9630252 4.88403361,15.9630252 4.65882353,15.8319328 C4.43361345,15.7042017 4.29579832,15.4655462 4.29243697,15.2067227 L4.29243697,8.7394958 C4.29579832,8.33613445 4.62857143,8.01344538 5.03193277,8.0167807 C5.15630252,8.0167807 5.28067227,8.05042017 5.38823529,8.11428571 L11.0352941,11.3445378 Z M22.1613445,19.1932773 L22.1613445,4.4302521 C22.1613445,3.38823529 21.9294118,2.64537815 21.4420168,2.16470588 C20.9546218,1.68403361 20.205042,1.4487395 19.1529412,1.4487395 L11.7008403,1.4487395 C10.6588235,1.4487395 9.90588235,1.6907563 9.41176471,2.18151261 C8.92436975,2.67226891 8.69243697,3.40840336 8.69243697,4.4302521 L8.69243697,5.02857143 C12.2084034,5.51932773 14.2252101,7.76806723 14.2252101,11.9764706 C14.2252101,16.1747899 12.2184874,18.4134454 8.70252101,18.9142857 L8.70252101,19.6302521 C8.75294118,20.4302521 8.98487395,21.0487395 9.41176471,21.4722689 C9.89915966,21.9462185 10.6487395,22.1781513 11.7008403,22.1781513 L19.1529412,22.1781513 C20.205042,22.1781513 20.9546218,21.9462185 21.4420168,21.4722689 C21.9294118,20.9882353 22.1613445,20.2487395 22.1613445,19.1932773 Z M7.10252101,17.5731092 C10.9613445,17.5731092 12.7630252,15.7882353 12.7630252,11.9764706 C12.7630252,8.15462185 10.9613445,6.3697479 7.10252101,6.3697479 C3.25378151,6.3697479 1.46218487,8.15798319 1.46218487,11.9764706 C1.46218487,15.7882353 3.25378151,17.5731092 7.10252101,17.5731092 Z M22.4840336,1.1394958 C23.2537815,1.91260504 23.6235294,2.98151261 23.6235294,4.4302521 L23.6235294,19.1932773 C23.6235294,20.6487395 23.2436975,21.7310924 22.4638655,22.4941176 C21.6941176,23.2571429 20.6117647,23.6235294 19.1495798,23.6235294 L11.7008403,23.6235294 C10.2386555,23.6235294 9.15630252,23.2571429 8.37647059,22.5042017 C7.68739496,21.8184874 7.31428571,20.8941176 7.23697479,19.6672269 L7.23697479,19.0117647 C7.18655462,19.0117647 7.14957983,19.0218487 7.10252101,19.0218487 C2.60840336,19.0218487 0,16.7731092 0,11.9764706 C0,7.1697479 2.61176471,4.9210084 7.10252101,4.9210084 C7.15294118,4.9210084 7.18991597,4.93109244 7.2302521,4.93109244 L7.2302521,4.42689076 C7.2302521,2.99831933 7.6,1.93613445 8.37983193,1.15630252 C9.15630252,0.376470588 10.2386555,0 11.7008403,0 L19.1529412,0 C20.6151261,0 21.7042017,0.376470588 22.4840336,1.1394958 Z M14.4907563,19.9294118 C14.2722689,19.707563 14.1613445,19.4016807 14.1613445,19.0184874 C14.1613445,18.2319328 14.6352941,17.7613445 15.4252101,17.7613445 C16.2151261,17.7613445 16.6890756,18.2319328 16.6890756,19.0184874 C16.6890756,19.4016807 16.5781513,19.707563 16.3596639,19.9294118 C16.1378151,20.1512605 15.8151261,20.2722689 15.4252101,20.2722689 C15.0352941,20.2722689 14.712605,20.1546218 14.4907563,19.9294118 Z" id="Movil-Play_2Regular"></path>
        </g>
    </g>
</svg>

<svg width="24" height="24" viewBox="0 0 24 24" xmlns="http://www.w3.org/2000/svg"><path d="M5.755 13.95l3.455-1.977-3.455-1.98v3.957zm5.28-2.605a.73.73 0 01.367.628.73.73 0 01-.367.629l-5.647 3.23a.726.726 0 01-.73 0 .728.728 0 01-.366-.625V8.739a.732.732 0 011.096-.625l5.647 3.23zm11.126 7.848V4.43c0-1.042-.232-1.785-.719-2.265-.487-.481-1.237-.716-2.29-.716h-7.451c-1.042 0-1.795.242-2.29.733-.487.49-.719 1.226-.719 2.248v.599c3.516.49 5.533 2.74 5.533 6.947 0 4.199-2.007 6.437-5.522 6.938v.716c.05.8.282 1.419.709 1.842.487.474 1.237.706 2.289.706h7.452c1.052 0 1.802-.232 2.289-.706.487-.484.72-1.223.72-2.279zm-15.058-1.62c3.858 0 5.66-1.785 5.66-5.597 0-3.821-1.802-5.606-5.66-5.606-3.85 0-5.64 1.788-5.64 5.606 0 3.812 1.79 5.597 5.64 5.597zM22.484 1.14c.77.774 1.14 1.843 1.14 3.291v14.763c0 1.456-.38 2.538-1.16 3.301-.77.763-1.852 1.13-3.314 1.13H11.7c-1.461 0-2.544-.367-3.324-1.12-.689-.686-1.062-1.61-1.139-2.837v-.655c-.05 0-.087.01-.134.01C2.608 19.022 0 16.773 0 11.976 0 7.17 2.612 4.921 7.103 4.921c.05 0 .087.01.127.01v-.504c0-1.429.37-2.49 1.15-3.27C9.156.376 10.239 0 11.7 0h7.453c1.462 0 2.551.376 3.331 1.14zm-7.993 18.79c-.219-.221-.33-.527-.33-.91 0-.787.474-1.258 1.264-1.258s1.264.47 1.264 1.257c0 .384-.11.69-.33.911-.221.222-.544.343-.934.343s-.712-.117-.934-.343z" fill="#5CB615" fill-rule="nonzero"/></svg>
